X:1
T:Title
%%score { ( 1 3 ) | ( 2 4 ) }
L:1/8
Q:1/4=106
M:4/4
K:Bb
V:1 treble nm="Grand Piano"
V:3 treble 
V:2 bass 
V:4 bass 
V:1
 [DB]2 [DB]2 [Fd]>[FB] [EA]>[Ec] | [DB]4 [DF]2 z2 | z4 .B2 z2 | [Fc]6 z2 | %4
w: Pemberton~Pierce * * * * *||||
 [DB]2 [DB]2 [Fd]>[FB] [EA]>[Ec] | [DB]4 [Fd]2 z2 | [CFc]3 [A,F] F-[FB]=E-[EG] | F6 z2 | %8
w: ||||
 F3 G [FA][FB][Fc][Fd] | [Fe]2 [Fe]4 z2 | [Fd]3 c B2 z E | [DB]6 z2 | %12
w: ||||
 [EB]2 [EB]2 [Ge]>[Ge] [GB]>[Gc] | [Fd]4 [Fd]2 z2 | [^Fd]3 A B2 [Gc]2 | z4 c4 | [DB]3 D EFGA | %17
w: |||||
 [DB]2 [Fc]2 [Fd]2 [Be]2 | [Ff]3 [DB] [Ge]2 [Fd]2 | [DB]6 z2 |] %20
w: |||
V:2
 [B,,B,]2 [B,,B,]2 [B,,B,]>[D,B,] [F,C]>[F,A,] | [B,,B,]4 [B,,B,]2 z2 | %2
 [E,B,]3 [E,C] [D,B,][C,A,]B,-[E,B,] | [F,A,]6 z2 | [B,,B,]2 [B,,B,]2 [B,,B,]>[D,B,] [F,C]>[F,A,] | %5
 [B,,B,]4 [B,,B,]2 z2 | A,,3 D, z D z B, | [F,A,]6 z2 | %8
 [F,A,C]3 [=E,B,C] [_E,C][D,B,][C,A,][B,,B,] | [F,A,]2 [F,A,]4 z2 | %10
 [B,,B,]3 [E,G,E] [F,D]2 .[F,C]2 | [B,,F,]6 z2 | [E,G,]2 [E,G,]2 [E,B,]>[E,B,] [E,B,]>[E,B,] | %13
 [B,,B,]4 [B,,B,]2 z2 | [D,A,]3 [D,^F,D] [G,D]2 [E,G,]2 | A,4- [A,-F]2 A,2 | %16
 [B,,B,]3 [B,,D,B,] [C,E,C][D,F,D][E,G,E][F,CF] | z4 B,4 | [D,B,]3 [G,B,] [F,B,]2 [F,A,]2 | %19
 [B,,B,]6 z2 |] %20
V:3
 x8 | x8 | [EG]3 [FA] F-[Fc][Fd][Ge] | x8 | x8 | x8 | z4 .[CA]2 .[CA]2 | x8 | x8 | x8 | z4 z2 A2 | %11
 x8 | x8 | x8 | x8 | [^Fd]4 z2 E2 | x8 | x8 | x8 | x8 |] %20
V:4
 x8 | x8 | z4 z2 .B,,2 | x8 | x8 | x8 | z4 C,2 C,2 | x8 | x8 | x8 | x8 | x8 | x8 | x8 | x8 | %15
 D,4 F,4 | x8 | [G,B,]2 [F,A,]2 z2 G,2 | x8 | x8 |] %20

